outputs/icons/general/store_swap_round.svg

<svg xmlns="http://www.w3.org/2000/svg" width="1200" height="1200" fill="none"><path fill="#000" d="M200 212.5c0-6.904 5.596-12.5 12.5-12.5h775c6.905 0 12.5 5.596 12.5 12.5v75c0 6.904-5.595 12.5-12.5 12.5h-775c-6.904 0-12.5-5.596-12.5-12.5z"/><path fill="#000" fill-rule="evenodd" d="M592.9 1000c8.065 0 14.01-7.525 12.54-15.455A327 327 0 0 1 600 925c0-179.495 145.505-325 325-325 44.295 0 86.52 8.86 125 24.91V600l-47.99-239.952A12.5 12.5 0 0 0 989.75 350H210.248a12.5 12.5 0 0 0-12.258 10.048L150 600v87.5c0 6.905 5.596 12.5 12.5 12.5H200v287.5c0 6.905 5.596 12.5 12.5 12.5zM300 900h300V700H300z"/><path fill="#000" d="M900 725v-44.82c0-11.14-13.465-16.715-21.34-8.84l-69.82 69.82c-4.885 4.885-4.885 12.795 0 17.68l69.82 69.82c7.875 7.875 21.34 2.3 21.34-8.84V775c82.75 0 150 67.25 150 150 0 18.405-3.32 36.15-9.48 52.45-4.045 10.715-2.465 23.105 5.635 31.205 11.715 11.715 31.37 9.525 37.89-5.71C1094.27 979.04 1100 952.705 1100 925c0-110.5-89.5-200-200-200m0 350c-82.75 0-150-67.25-150-150 0-18.405 3.32-36.15 9.48-52.45 4.045-10.715 2.465-23.105-5.635-31.205-11.715-11.715-31.37-9.525-37.89 5.71C705.73 870.96 700 897.295 700 925c0 110.5 89.5 200 200 200v44.82c0 11.14 13.465 16.715 21.34 8.84l69.82-69.82c4.885-4.885 4.885-12.795 0-17.68l-69.82-69.82c-7.875-7.875-21.34-2.3-21.34 8.84z"/></svg>

<svg width="1200" height="1200" viewBox="0 0 1200 1200" fill="none" xmlns="http://www.w3.org/2000/svg"><path d="M200 212.5C200 205.596 205.596 200 212.5 200H987.5C994.405 200 1000 205.596 1000 212.5V287.5C1000 294.404 994.405 300 987.5 300H212.5C205.596 300 200 294.404 200 287.5V212.5Z" fill="#1D1E23"/><path fill-rule="evenodd" d="M592.9 1000C600.965 1000 606.91 992.475 605.44 984.545C601.87 965.24 600 945.34 600 925C600 745.505 745.505 600 925 600C969.295 600 1011.52 608.86 1050 624.91V600L1002.01 360.048C1000.84 354.206 995.71 350 989.75 350H210.248C204.289 350 199.159 354.206 197.99 360.048L150 600V687.5C150 694.405 155.596 700 162.5 700H200V987.5C200 994.405 205.596 1000 212.5 1000H592.9ZM300 900H600V700H300V900Z" fill="#1D1E23"/><path d="M900 725V680.18C900 669.04 886.535 663.465 878.66 671.34L808.84 741.16C803.955 746.045 803.955 753.955 808.84 758.84L878.66 828.66C886.535 836.535 900 830.96 900 819.82V775C982.75 775 1050 842.25 1050 925C1050 943.405 1046.68 961.15 1040.52 977.45C1036.475 988.165 1038.055 1000.555 1046.155 1008.655C1057.87 1020.37 1077.525 1018.18 1084.045 1002.945C1094.27 979.04 1100 952.705 1100 925C1100 814.5 1010.5 725 900 725ZM900 1075C817.25 1075 750 1007.75 750 925C750 906.595 753.32 888.85 759.48 872.55C763.525 861.835 761.945 849.445 753.845 841.345C742.13 829.63 722.475 831.82 715.955 847.055C705.73 870.96 700 897.295 700 925C700 1035.5 789.5 1125 900 1125V1169.82C900 1180.96 913.465 1186.535 921.34 1178.66L991.16 1108.84C996.045 1103.955 996.045 1096.045 991.16 1091.16L921.34 1021.34C913.465 1013.465 900 1019.04 900 1030.18V1075Z" fill="#1D1E23"/></svg>
